X:104
T:Trimousette
R:Chanson
O:France
B:Le livre des Chansons (Henri Davenson) n104
Z:<anamnese@laposte.net> -- http://anamnese.fr.st
M:2/4
L:1/8
Q:1/4=105
K:C
B2 (cB) | A2 A B | c2 B c | A2 e d | e B c B | A2-A z || z A c d | 
[M:3/4] e2 (ed) c B | [M:2/4] A A c d |
[M:3/4] e2 (ed) c B | [M:2/4] A E A c | B d c B | A E A c | B d c B |
[M:3/4] A z B2 (cB) | [M:2/4] A z A B | c2  B c | A2  e d | e B c B | A2-A z ||
W:Trimousette, C'est le Mai, mois de Mai, C'est le joli mois de mai.
W:  En revenant de dans les champs,
W:  Nous 'ons trouv les bls si grands,
W:  La blanche pine florissant,
W:  Devant Dieu
W:C'est le Mai, mois de mai, C'est le joli mois de mai 
W:/.../
